X: 163
T: l'Oiseau Bleu
C:
R: reel
B: NEFR #163
Z: 2012 John Chambers <jc:trillian.mit.edu>
M: C|
L: 1/8
K: D
|:"D"A3 B A2 G2 | F2 A2 d3 d | "A7"c2 d2 e3 e | "D"d2 e2 f2 d2 \
| "D"A3 B A2 G2 | F2 A2 d2- d2 | "A7"c2 d2 e2 fg | "D"f2 e2 d2-d2 :|
|:"D"A2 d2 f3 f | "Em"e2 f2 g2 e2 | "A7"A2 c2 e2 fe | "D"d2 e2 f2 d2 \
| "D"A2 d2 f3 f | "Em"e2 f2 g2 e2 | "A7"A2 c2 e2 fg | "D"f2 e2 d2-d2 :|
